testsuite/oiiotool-colorroundtrip/src/broadcast.ocio
ocio_profile_version: 2
environment: {}
search_path: ""
roles:
  default: raw_data
  scene_linear: lin_ap1_scene
file_rules:
  # Spec 09 Feature B: oiio:default declares the write-canonical space mapping
  # (g26_p3d65_display -> g26_xyzd65_display, the XYZ DCDM form). The rule
  # carries policy only (regex $^ so it never matches a file); no OIIO attribute
  # is set anywhere -- the policy comes from the CONFIG.
  - !<Rule> {name: oiio:default, colorspace: raw_data, regex: "$^", custom: {oiio:colorpolicy:write:canonicalize: "1"}}
  - !<Rule> {name: Default, colorspace: raw_data}
displays:
  disp:
    - !<View> {name: view, colorspace: g26_p3d65_display}
active_displays: [disp]
active_views: [view]
colorspaces:
  - !<ColorSpace> {name: raw_data, isdata: true, aliases: [data]}
  - !<ColorSpace> {name: lin_ap1_scene}
  - !<ColorSpace> {name: g26_p3d65_display}
  - !<ColorSpace> {name: g26_xyzd65_display}
